X:1
T:Title
%%score { ( 1 3 ) | ( 2 4 ) }
L:1/8
Q:1/4=100
M:6/8
K:Eb
V:1 treble nm="Grand Piano"
V:3 treble 
V:2 bass 
V:4 bass 
V:1
 [EGB]3 [B,EG]2 [B,DF] | E2 [DF] E2- [Ec] | B3 E2 [DF] | G6 | B3 G2 F | E2 [DF] G2 c | %6
w: F.~S.~Shepard * *||||||
 B2 E [B,DG]2 [A,DF] | [G,E]6 | [DF]3 [DF]2 [EG] | [FA]2 [EG] [FA]3 | [EG]3 [EG]2 [FA] | %11
w: |||||
 [GB]2 [_G=A] [=GB]3 | c3 e2 c | B2 =A B2 _A | G3 [DA]2 [DF] | E6 |] %16
w: |||||
V:2
 E,3 E,2 F, | G,2 B,, z2 A, | [E,G,E]3 [C,G,]2 [B,,B,] | [E,B,E]6 | [E,G,E]3 [E,B,E]2 [F,B,D] | %5
 z3 .B,3 | .[E,E]3 z3 | E,6 | [B,,B,]3 [B,,B,]2 [B,,B,] | [B,,B,]2 [B,,B,] [B,,B,]3 | %10
 [E,B,]3 [E,B,]2 [E,B,] | [E,E]2 [E,E] [E,E]3 | [A,EA]3 [A,CA]2[K:bass] [A,E] | %13
 [G,B,E]2 [_G,CE] E2- [A,DE] | [B,E]3 [B,,B,]2 [B,,A,] | [E,G,]6 |] %16
V:3
 x6 | B,3 .[B,G]3 | x6 | x6 | x6 | x6 | x6 | x6 | x6 | x6 | x6 | x6 | x6 | x6 | x6 | x6 |] %16
V:4
 x6 | z3 E,3 | x6 | x6 | x6 | [G,B,]2 [B,,B,] [E,E]2- [E,A,E] | G,2- [C,G,] B,,2 B,, | x6 | x6 | %9
 x6 | x6 | x6 | x5[K:bass] x | z3 .[=G,B,]3 | x6 | x6 |] %16

